X:35
T:Whole Chicken in the Soup
Z: id:dc-slide-38
M:6/8
L:1/8
K:G Major
G2E D2E|G2A B3|cBA B2G|A2G EDE|!
G2E D2E|G2A B2d|d2B ABA|G3 G3:|!
efg d2B|c2e d3|d2B A2G|E2A ABA|!
[1 efg d2B|c2e d3|d2B ABA|G3 G3:|!
[2 G2E D2E|G2A B2d|d2B ABA|G3 G3|]!